assets/flags-color/Sz.svg

<svg xmlns="http://www.w3.org/2000/svg" viewBox="0 0 512 512"><g fill="#4173cd"><path d="M0 417.68h512V512H0zM0 0h512v94.32H0z"/></g><path fill="#ff4b55" d="M0 94.32h512v323.37H0z"/><g fill="#ffe15a"><path d="M0 80.84h512v26.947H0zM0 404.21h512v26.947H0zM452.365 264.794H59.074a4.3 4.3 0 01-4.3-4.3v-2.564a4.3 4.3 0 014.3-4.3h393.291a4.3 4.3 0 014.3 4.3v2.564a4.3 4.3 0 01-4.3 4.3z"/></g><path fill="#f5f5f5" d="M375.728 242.467l19.537-8.373 19.536 8.373-19.536 8.372z"/><path fill="#ffe15a" d="M380.535 238.9H93.847a3.566 3.566 0 100 7.132h286.688a3.566 3.566 0 100-7.132z"/><path fill="#f5f5f5" d="M396.04 222.93l19.536-8.373 19.537 8.373-19.537 8.373z"/><path fill="#ffe15a" d="M400.846 219.364H114.158a3.566 3.566 0 100 7.132h286.688a3.566 3.566 0 100-7.132z"/><path fill="#f5f5f5" d="M255.719 186.648c-49.577 0-92.831 28.075-115.997 69.773 23.166 41.698 66.42 69.773 115.997 69.773s92.831-28.075 115.997-69.773c-23.166-41.698-66.42-69.773-115.997-69.773z"/><path fill="#464655" d="M139.722 256.421c23.166 41.698 66.42 69.773 115.997 69.773 8.279 0 16.359-.85 24.221-2.348-6.003-13.176-27.113-13.153-28.408-18.119-1.395-5.349 17.21-4.186 20.467-8.605 3.256-4.419-17.676-6.28-18.606-10.698-.93-4.419 8.373-7.443 10.001-14.42s5.349-9.07 8.14-13.257c2.791-4.186-4.651-5.582-6.512-19.536-1.861-13.955-12.792-15.815-18.141-27.211-5.349-11.396 3.256-19.769 8.838-25.351-49.576-.001-92.831 28.074-115.997 69.772z"/><g fill="#f5f5f5"><path d="M183.16 231.3h5.582v22.327h-5.582zM194.32 231.3h5.582v22.327h-5.582zM205.48 231.3h5.582v22.327h-5.582zM216.65 231.3h5.582v22.327h-5.582zM227.81 231.3h5.582v22.327h-5.582zM238.97 231.3h5.582v22.327h-5.582zM183.16 264.79h5.582v22.327h-5.582zM194.32 264.79h5.582v22.327h-5.582zM205.48 264.79h5.582v22.327h-5.582zM216.65 264.79h5.582v22.327h-5.582zM227.81 264.79h5.582v22.327h-5.582zM238.97 264.79h5.582v22.327h-5.582z"/></g><g fill="#464655"><path d="M266.88 231.3h5.582v22.327h-5.582zM278.05 231.3h5.582v22.327h-5.582zM289.21 231.3h5.582v22.327h-5.582zM300.37 231.3h5.582v22.327h-5.582zM311.54 231.3h5.582v22.327h-5.582zM322.7 231.3h5.582v22.327H322.7zM266.88 264.79h5.582v22.327h-5.582zM278.05 264.79h5.582v22.327h-5.582zM289.21 264.79h5.582v22.327h-5.582zM300.37 264.79h5.582v22.327h-5.582zM311.54 264.79h5.582v22.327h-5.582zM322.7 264.79h5.582v22.327H322.7z"/></g><path fill="#245dbd" d="M427.963 252.758c-4.47 10.385-17.191 11.606-10.143 38.077l3.61-3.665s3.782 9.977 12.893 16.697c0 0 11.174-9.366 12.034-24.231l4.642 2.036s-2.235-27.081-23.036-28.914z"/><g fill="#ff4b55"><path d="M444.466 274.036c-.357 0-.712-.165-.98-.49-4.378-5.281-9.955-6.974-10.008-6.993-.736-.216-1.187-1.101-1.005-1.973.183-.865.929-1.406 1.663-1.19.258.076 6.369 1.915 11.311 7.878.532.636.524 1.673-.016 2.303a1.265 1.265 0 01-.965.465zM441.315 286.355c-.411 0-.819-.216-1.091-.636-3.247-5.001-6.93-7.725-6.968-7.75-.647-.471-.846-1.476-.449-2.246.4-.764 1.246-.999 1.894-.528.169.121 4.153 3.073 7.704 8.539.462.713.349 1.737-.253 2.284a1.225 1.225 0 01-.837.337zM434.098 300.068c-.078 0-.156-.006-.236-.025-.747-.153-1.252-.993-1.123-1.877.543-3.729.089-9.844-.655-13-.204-.865.223-1.763.954-2.011.739-.235 1.491.267 1.695 1.133.841 3.563 1.332 10.213.72 14.425-.117.795-.7 1.355-1.355 1.355zM424.425 285.025c-.392 0-.782-.197-1.053-.579-.489-.687-.416-1.718.164-2.297.035-.032 3.546-3.595 4.462-8.527.164-.878.892-1.432 1.639-1.241.741.191 1.211 1.063 1.048 1.941-1.123 6.032-5.203 10.149-5.378 10.321-.259.255-.57.382-.882.382zM420.605 274.603c-.462 0-.913-.274-1.174-.776-.398-.764-.196-1.769.451-2.24.051-.038 5.039-3.71 6.586-7.718.314-.827 1.136-1.19 1.824-.808.69.375.994 1.343.68 2.157-1.899 4.919-7.416 8.972-7.65 9.144a1.208 1.208 0 01-.717.241z"/></g><path fill="#245dbd" d="M79.452 256.253c-3.737 8.683-14.375 9.705-8.481 31.839l3.019-3.065s3.162 8.343 10.781 13.961c0 0 9.344-7.832 10.062-20.261l3.881 1.703c0 .001-1.868-22.644-19.262-24.177z"/><g fill="#ff4b55"><path d="M93.252 274.046c-.299 0-.595-.138-.82-.41-3.661-4.416-8.324-5.831-8.369-5.847-.615-.181-.993-.921-.84-1.649.153-.724.777-1.176 1.39-.995.216.064 5.325 1.602 9.458 6.587.445.532.438 1.399-.013 1.926-.224.26-.514.388-.806.388zM90.617 284.347c-.344 0-.685-.181-.912-.532-2.715-4.182-5.795-6.459-5.826-6.481-.541-.394-.708-1.234-.375-1.878.335-.638 1.042-.835 1.583-.442.142.101 3.472 2.57 6.442 7.14.386.596.292 1.453-.211 1.91a1.03 1.03 0 01-.701.283zM84.582 295.813a.85.85 0 01-.198-.021c-.624-.128-1.047-.83-.939-1.57.454-3.118.074-8.231-.548-10.87-.171-.724.186-1.474.797-1.681.618-.197 1.247.223 1.417.947.703 2.98 1.114 8.54.602 12.062-.096.665-.583 1.133-1.131 1.133zM76.494 283.235c-.328 0-.654-.165-.88-.484-.409-.575-.348-1.437.137-1.921.029-.027 2.965-3.006 3.731-7.13.137-.734.746-1.197 1.37-1.038.62.16 1.013.889.876 1.623-.939 5.044-4.351 8.486-4.497 8.63a1.05 1.05 0 01-.737.32zM73.3 274.519c-.386 0-.764-.229-.982-.649-.332-.638-.164-1.479.377-1.873.043-.032 4.214-3.102 5.507-6.454.263-.692.95-.995 1.525-.676.577.314.831 1.123.568 1.804-1.588 4.113-6.201 7.502-6.397 7.646a.993.993 0 01-.598.202z"/></g></svg>

<svg xmlns="http://www.w3.org/2000/svg" x="0" y="0" enable-background="new 0 0 512 512" version="1.1" viewBox="0 0 512 512" xml:space="preserve"><g fill="#4173CD"><path d="M0 417.68H512V512H0z"/><path d="M0 0H512V94.32H0z"/></g><path fill="#FF4B55" d="M0 94.32H512V417.69H0z"/><g fill="#FFE15A"><path d="M0 80.84H512V107.787H0z"/><path d="M0 404.21H512V431.157H0z"/><path d="M452.365 264.794H59.074a4.3 4.3 0 0 1-4.3-4.3v-2.564a4.3 4.3 0 0 1 4.3-4.3h393.291a4.3 4.3 0 0 1 4.3 4.3v2.564a4.3 4.3 0 0 1-4.3 4.3z"/></g><path fill="#F5F5F5" d="M375.728 242.467 395.265 234.094 414.801 242.467 395.265 250.839z"/><path fill="#FFE15A" d="M380.535 238.9H93.847a3.566 3.566 0 1 0 0 7.132h286.688a3.566 3.566 0 1 0 0-7.132z"/><path fill="#F5F5F5" d="M396.04 222.93 415.576 214.557 435.113 222.93 415.576 231.303z"/><path fill="#FFE15A" d="M400.846 219.364H114.158a3.566 3.566 0 1 0 0 7.132h286.688a3.566 3.566 0 1 0 0-7.132z"/><path fill="#F5F5F5" d="M255.719 186.648c-49.577 0-92.831 28.075-115.997 69.773 23.166 41.698 66.42 69.773 115.997 69.773s92.831-28.075 115.997-69.773c-23.166-41.698-66.42-69.773-115.997-69.773z"/><path fill="#464655" d="M139.722 256.421c23.166 41.698 66.42 69.773 115.997 69.773 8.279 0 16.359-.85 24.221-2.348-6.003-13.176-27.113-13.153-28.408-18.119-1.395-5.349 17.21-4.186 20.467-8.605 3.256-4.419-17.676-6.28-18.606-10.698-.93-4.419 8.373-7.443 10.001-14.42s5.349-9.07 8.14-13.257c2.791-4.186-4.651-5.582-6.512-19.536-1.861-13.955-12.792-15.815-18.141-27.211-5.349-11.396 3.256-19.769 8.838-25.351-49.576-.001-92.831 28.074-115.997 69.772z"/><g fill="#F5F5F5"><path d="M183.16 231.3H188.742V253.627H183.16z"/><path d="M194.32 231.3H199.902V253.627H194.32z"/><path d="M205.48 231.3H211.06199999999998V253.627H205.48z"/><path d="M216.65 231.3H222.232V253.627H216.65z"/><path d="M227.81 231.3H233.392V253.627H227.81z"/><path d="M238.97 231.3H244.552V253.627H238.97z"/><path d="M183.16 264.79H188.742V287.117H183.16z"/><path d="M194.32 264.79H199.902V287.117H194.32z"/><path d="M205.48 264.79H211.06199999999998V287.117H205.48z"/><path d="M216.65 264.79H222.232V287.117H216.65z"/><path d="M227.81 264.79H233.392V287.117H227.81z"/><path d="M238.97 264.79H244.552V287.117H238.97z"/></g><g fill="#464655"><path d="M266.88 231.3H272.462V253.627H266.88z"/><path d="M278.05 231.3H283.632V253.627H278.05z"/><path d="M289.21 231.3H294.792V253.627H289.21z"/><path d="M300.37 231.3H305.952V253.627H300.37z"/><path d="M311.54 231.3H317.122V253.627H311.54z"/><path d="M322.7 231.3H328.282V253.627H322.7z"/><path d="M266.88 264.79H272.462V287.117H266.88z"/><path d="M278.05 264.79H283.632V287.117H278.05z"/><path d="M289.21 264.79H294.792V287.117H289.21z"/><path d="M300.37 264.79H305.952V287.117H300.37z"/><path d="M311.54 264.79H317.122V287.117H311.54z"/><path d="M322.7 264.79H328.282V287.117H322.7z"/></g><path fill="#245DBD" d="M427.963 252.758c-4.47 10.385-17.191 11.606-10.143 38.077l3.61-3.665s3.782 9.977 12.893 16.697c0 0 11.174-9.366 12.034-24.231l4.642 2.036s-2.235-27.081-23.036-28.914z"/><g fill="#FF4B55"><path d="M444.466 274.036c-.357 0-.712-.165-.98-.49-4.378-5.281-9.955-6.974-10.008-6.993-.736-.216-1.187-1.101-1.005-1.973.183-.865.929-1.406 1.663-1.19.258.076 6.369 1.915 11.311 7.878.532.636.524 1.673-.016 2.303a1.265 1.265 0 0 1-.965.465zM441.315 286.355c-.411 0-.819-.216-1.091-.636-3.247-5.001-6.93-7.725-6.968-7.75-.647-.471-.846-1.476-.449-2.246.4-.764 1.246-.999 1.894-.528.169.121 4.153 3.073 7.704 8.539.462.713.349 1.737-.253 2.284a1.225 1.225 0 0 1-.837.337zM434.098 300.068c-.078 0-.156-.006-.236-.025-.747-.153-1.252-.993-1.123-1.877.543-3.729.089-9.844-.655-13-.204-.865.223-1.763.954-2.011.739-.235 1.491.267 1.695 1.133.841 3.563 1.332 10.213.72 14.425-.117.795-.7 1.355-1.355 1.355zM424.425 285.025c-.392 0-.782-.197-1.053-.579-.489-.687-.416-1.718.164-2.297.035-.032 3.546-3.595 4.462-8.527.164-.878.892-1.432 1.639-1.241.741.191 1.211 1.063 1.048 1.941-1.123 6.032-5.203 10.149-5.378 10.321-.259.255-.57.382-.882.382zM420.605 274.603c-.462 0-.913-.274-1.174-.776-.398-.764-.196-1.769.451-2.24.051-.038 5.039-3.71 6.586-7.718.314-.827 1.136-1.19 1.824-.808.69.375.994 1.343.68 2.157-1.899 4.919-7.416 8.972-7.65 9.144a1.208 1.208 0 0 1-.717.241z"/></g><path fill="#245DBD" d="M79.452 256.253c-3.737 8.683-14.375 9.705-8.481 31.839l3.019-3.065s3.162 8.343 10.781 13.961c0 0 9.344-7.832 10.062-20.261l3.881 1.703c0 .001-1.868-22.644-19.262-24.177z"/><g fill="#FF4B55"><path d="M93.252 274.046c-.299 0-.595-.138-.82-.41-3.661-4.416-8.324-5.831-8.369-5.847-.615-.181-.993-.921-.84-1.649.153-.724.777-1.176 1.39-.995.216.064 5.325 1.602 9.458 6.587.445.532.438 1.399-.013 1.926-.224.26-.514.388-.806.388zM90.617 284.347c-.344 0-.685-.181-.912-.532-2.715-4.182-5.795-6.459-5.826-6.481-.541-.394-.708-1.234-.375-1.878.335-.638 1.042-.835 1.583-.442.142.101 3.472 2.57 6.442 7.14.386.596.292 1.453-.211 1.91a1.03 1.03 0 0 1-.701.283zM84.582 295.813a.85.85 0 0 1-.198-.021c-.624-.128-1.047-.83-.939-1.57.454-3.118.074-8.231-.548-10.87-.171-.724.186-1.474.797-1.681.618-.197 1.247.223 1.417.947.703 2.98 1.114 8.54.602 12.062-.096.665-.583 1.133-1.131 1.133zM76.494 283.235c-.328 0-.654-.165-.88-.484-.409-.575-.348-1.437.137-1.921.029-.027 2.965-3.006 3.731-7.13.137-.734.746-1.197 1.37-1.038.62.16 1.013.889.876 1.623-.939 5.044-4.351 8.486-4.497 8.63a1.05 1.05 0 0 1-.737.32zM73.3 274.519c-.386 0-.764-.229-.982-.649-.332-.638-.164-1.479.377-1.873.043-.032 4.214-3.102 5.507-6.454.263-.692.95-.995 1.525-.676.577.314.831 1.123.568 1.804-1.588 4.113-6.201 7.502-6.397 7.646a.993.993 0 0 1-.598.202z"/></g></svg>
